icons/alert-line.svg

<svg viewBox="0 0 24 24" fill="currentColor" xmlns="http://www.w3.org/2000/svg">
    <path d="M12.8659 3.00017L22.3922 19.5002C22.6684 19.9785 22.5045 20.5901 22.0262 20.8662C21.8742 20.954 21.7017 21.0002 21.5262 21.0002H2.47363C1.92135 21.0002 1.47363 20.5525 1.47363 20.0002C1.47363 19.8246 1.51984 19.6522 1.60761 19.5002L11.1339 3.00017C11.41 2.52187 12.0216 2.358 12.4999 2.63414C12.6519 2.72191 12.7782 2.84815 12.8659 3.00017ZM4.20568 19.0002H19.7941L11.9999 5.50017L4.20568 19.0002ZM10.9999 16.0002H12.9999V18.0002H10.9999V16.0002ZM10.9999 9.00017H12.9999V14.0002H10.9999V9.00017Z"/>
</svg>

<svg xmlns="http://www.w3.org/2000/svg" viewBox="0 0 24 24">
    <g>
        <path fill="none" d="M0 0h24v24H0z"/>
        <path fill-rule="nonzero" d="M12.866 3l9.526 16.5a1 1 0 0 1-.866 1.5H2.474a1 1 0 0 1-.866-1.5L11.134 3a1 1 0 0 1 1.732 0zm-8.66 16h15.588L12 5.5 4.206 19zM11 16h2v2h-2v-2zm0-7h2v5h-2V9z"/>
    </g>
</svg>
